X:1
T:Non piu gli Arabi
T:Luca Marenzio
T:Source : Il quinto libro delle Villanelle a tre voci---Venetia---Herede di G.Scotto---1587. Editor : André Vierendeels (09/05/17).
T:Notes : Original clefs : C1, C3, C4, F4 Editorial accidentals above the staff Music collected by Attilio Gualtieri "A quattro"
T:Non piu gli Arabi
T:©
T:©
C:Luca Marenzio
Z:©
%%score [ 1 2 3 4 ]
L:1/8
Q:1/4=120
M:4/4
K:C
V:1 treble nm="Soprano" snm="S"
V:2 treble nm="Alto" snm="A"
V:3 treble-8 nm="Tenor" snm="T"
V:4 bass nm="Bass" snm="B"
V:1
 G8 | G4 A4- | A2 A2 B4 | c8 | B8 | A8 | A2 B2 d2 B2 | A2 GB d2 B2 | A2 G4 ^F2 | G8 | z4 G4 | %11
w: Non|piu gli'A-|* ra- bi|fu-|mi,|pla-|can gl'i- ra- ti|Nu- mi, c- gl'i- ra-|ti Nu- *|mi,|ma|
 G4 G4 | A6 G2 | F8 | E2 A2 c2 A2 | G2 F2 G4 | G2 E2 A3 A | A2 A2 B3 B | B2 B2 ^c3 c | d2 B2 A4- | %20
w: sol i|ca- sti'o-|do-|ri, che dal gi-|ne- pro fuo-|ri, e sa- la-|no, e sa- la-|no, e sa- la-|no'i mor- ta-|
 A4 A2 d2 | c3 c c2 B2 | A4 B2 d2 | c3 c c2 B2 | A8 | B8 |] %26
w: * li, in|spi- ri- ti vi-|ta- li, in|spi- ri- ti vi-|ta-|li.|
V:2
 D8 | E4 F4- | F2 F2 F4 | G8 | G8 | ^F8 | ^F2 G2 A2 D2 | D8- | D8 | D8 | E8 | D4 E4 | F6 E2 | D8 | %14
w: Non|piu gli'A-|* ra- bi|fu-|mi,|pla-|can gl'i- ra- ti|Nu-||mi,|ma|sol i|ca- sti'o-|do-|
 C2 F2 A2 F2 | E2 D2 E4 | E2 G2 F3 F | ^F2 F2 G3 G | ^G2 G2 A3 A |"^-natural" A2 G2 ^F4- | %20
w: ri, che dal gi-|ne- pro fuo-|ri, e sa- la-|no, e sa- la-|no, e sa- la-|no'i mor- ta-|
 F4 ^F2 G2 | G3 G G2 G2 | ^F4 G2 D2 | G3 G G2 G2- | G2 ^FE F4 | G8 |] %26
w: * li, in|spi- ri- ti vi-|ta- li, in|spi- ri- ti vi-|* * * ta-|li.|
V:3
 B8 | c4 c4- | c2 c2 d4 | e8 | d8 | d8 | d4 z2 B2 | d2 B2 A2 GB | d2 B2 A4 | G8 | c8 | B4 c4 | %12
w: Non|piu gli'A-|* ra- bi|fu-|mi,|pla-|can gl'i-|ra- ti Ny- mi, gl'i-|ra- ti Nu-|mi,|ma|sol i|
 F6 C2 | D8 | A2 F2 F2 F2 | c2 d2 c4 | c2 c2 c3 c | d2 d2 d3 d | e2 e2 e3 e | A2 d2 d4- | %20
w: ca- sti'o-|do-|ri, che dal gi-|ne- pro fuo-|ri, e sa- la-|no, e sa- la-|no, e sa- la-|no'i mor- ta-|
 d4 d2 d2 | e3 e e2 d2 | d4 d2 B2 | e3 e e2 d2 | d8 | d8 |] %26
w: * li, in|spi- ri- ti vi-|ta- li, in|spi- ri- ti vi-|ta-|li.|
V:4
 G,8 | C,4 F,4- | F,2 F,2 D,4 | C,8 | G,8 | D,8 | D,2 G,2 ^F,2 G,2 | D,2 G,,G, ^F,2 G,2 | D,8 | %9
w: Non|piu gli'A-|* ra- bi|fu-|mi,|pla-|can gl'i- ra- ti|Nu- mi, gl'i- ra- ti|Nu-|
 G,,8 | z8 | z8 | z8 | z8 | z8 | z8 | z2 C,2 F,3 F, | D,2 D,2 G,3 G, | E,2 E,2 A,3 A, | %19
w: mi,|||||||e sa- la-|no, e sa- la-|no, e sa- la-|
 ^F,2 G,2 D,4- | D,4 D,2 B,,2 | C,3 C, C,2 G,,2 | D,4 G,,2 G,2 | C,3 C, C,2 G,,2 | D,8 | G,,8 |] %26
w: no'i mor- ta-|* li, in|spi- ri- ti vi-|ta- li, in|spi- ri- ti vi-|ta-|li.|

